X: 5
T: Green Mountain Petronella
I: Green Mountain Petronella	R-42	G	reel
M: C|
R: reel
K: G
"G"D2G2 GFGE| D2B2 BGAB| "D"c2cB ABcd| "C"e2d2 "G"d4|
"G"D2G2 GFGE| D2B2 BGAB| "D"c2A2 AGFG| "G"A2G2 G2z2 :|
|:Bd| "G"gggz  "D"fffz| "C"efge "G"dBGB| "C"edef "G"g2B2| "D"B2A2 A2Bd|
   "Em"gggz "Bm"fffz| "C"efge "G"dBGB| "C"edef "G"g2B2|1 A2 G2G2:|2 A4 GGz2|]
%%text Roaring Jelly  R-42
%%text 09/30/98 

#include "RightHeader.h"
% ---------- set 43 ----------
% Off She Goes (D) / Saddle the Pony (G) / The Ruddy Turnstone (D)
%%text Set 43
%%vskip -1cm
